; generated by PrusaSlicer 2.5.1+win64 on 2023-03-21 at 22:46:35 UTC


;
;
; 

; external perimeters extrusion width = 0.45mm
; perimeters extrusion width = 0.45mm
; infill extrusion width = 0.45mm
; solid infill extrusion width = 0.45mm
; top infill extrusion width = 0.40mm
; support material extrusion width = 0.35mm
; first layer extrusion width = 0.42mm

M73 P0 R95
M73 Q0 S96
M201 X1000 Y1000 Z200 E5000 ; sets maximum accelerations, mm/sec^2
M203 X200 Y200 Z12 E120 ; sets maximum feedrates, mm / sec
M204 P1250 R1250 T1250 ; sets acceleration (P, T) and retract acceleration (R), mm/sec^2
M205 X8.00 Y8.00 Z0.40 E4.50 ; sets the jerk limits, mm/sec
M205 S0 T0 ; sets the minimum extruding and travel feed rate, mm/sec
M107
;TYPE:Custom
M862.3 P "MK3S" ; printer model check
M862.1 P0.4 ; nozzle diameter check
M115 U3.12.2 ; tell printer latest fw version
G90 ; use absolute coordinates
M83 ; extruder relative mode
M104 S200 ; set extruder temp
M140 S0 ; set bed temp
M190 S0 ; wait for bed temp
M109 S200 ; wait for extruder temp
G28 W ; home all without mesh bed level
G80 ; mesh bed leveling

G1 Z0.2 F720
G1 Y-3 F1000 ; go outside print area
G92 E0
G1 X60 E9 F1000 ; intro line
G1 X100 E12.5 F1000 ; intro line

G92 E0
M221 S95

; Don't change E values below. Excessive value can damage the printer.

G21 ; set units to millimeters
G90 ; use absolute coordinates
M83 ; use relative distances for extrusion
; Filament gcode
M107
;LAYER_CHANGE
;Z:0.35
;HEIGHT:0.35
;BEFORE_LAYER_CHANGE
G92 E0.0
;0.35


G1 E-.8 F2100
G1 Z.4 F7800
;AFTER_LAYER_CHANGE
;0.35
G1 X65.982 Y25.623
G1 Z.35
G1 E.8 F2100
;TYPE:Skirt/Brim
;WIDTH:0.42
G1 F1800
G1 X67.444 Y23.345 E.13582
G1 X84.259 Y6.53 E1.19341
G1 X86.101 Y5.249 E.11262
G1 X88.745 Y4.672 E.13582
G1 X125.395 Y4.672 E1.83932
G1 X127.604 Y5.069 E.11262
G1 X129.882 Y6.53 E.13582
G1 X131.171 Y8.28 E.1091
G1 X133.957 Y13.852 E.3126
G1 X134.609 Y16.211 E.12282
G1 X137.25 Y51.482 E1.77508
G1 X137.145 Y53.468 E.0998
G1 X136.745 Y55.57 E.10742
G1 X136.116 Y57.466 E.10024
G1 X135.166 Y59.446 E.11019
G1 X134.039 Y61.205 E.10486
G1 X132.599 Y62.94 E.11317
G1 X131.006 Y64.42 E.10912
G1 X129.291 Y65.62 E.10503
G1 X128.093 Y66.263 E.06826
G1 X127.027 Y66.718 E.05815
G1 X125.839 Y67.11 E.06277
G1 X124.649 Y67.387 E.06134
G1 X123.522 Y67.563 E.05724
G1 X122.094 Y67.637 E.07173
G1 X119.761 Y67.432 E.11757
G1 X117.838 Y66.964 E.09934
G1 X95.114 Y59.466 E1.20089
G1 X94.264 Y59.115 E.04611
M73 Q0 S95
G1 X71.979 Y47.973 E1.2504
G1 X70.33 Y46.784 E.10201
G1 X67.444 Y43.898 E.20488
G1 X66.163 Y42.055 E.11262
G1 X65.585 Y39.411 E.13582
G1 X65.585 Y27.832 E.58113
G1 X65.972 Y25.682 E.10961
;WIPE_START
G1 F6240
G1 X67.239 Y23.671 E-.76
;WIPE_END
G1 E-.04 F2100
G1 Z.75 F7800
G1 X104.392 Y27.821
G1 Z.35
G1 E.8 F2100
G1 F1800
G1 X104.496 Y26.811 E.05094
G1 X104.616 Y26.115 E.03542
G1 X105.049 Y24.063 E.10526
G1 X105.301 Y22.76 E.06662
G1 X105.541 Y21.784 E.05043
G1 X105.786 Y21.071 E.03783
G1 X106.115 Y20.347 E.03992
G1 X106.542 Y19.636 E.04166
G1 X107.177 Y18.861 E.05025
G1 X108.358 Y17.893 E.07665
G1 X109.7 Y17.285 E.07394
G1 X110.925 Y17.076 E.06236
G1 X111.872 Y17.114 E.04758
G1 X112.291 Y17.204 E.02149
G1 X112.704 Y17.07 E.02178
G1 X114.686 Y16.966 E.09964
G1 X115.891 Y17.259 E.06222
G1 X116.815 Y17.691 E.05117
G1 X117.32 Y18.046 E.03102
G1 X117.615 Y18.064 E.01481
G1 X118.967 Y18.418 E.07015
G1 X120.174 Y19.134 E.07042
G1 X121.291 Y20.275 E.08012
G1 X121.869 Y21.277 E.05806
G1 X122.194 Y22.163 E.04737
G1 X122.38 Y23.071 E.04652
G1 X122.437 Y23.989 E.04614
G1 X122.375 Y25.12 E.05686
G1 X122.287 Y26.011 E.0449
G1 X122.173 Y26.857 E.04286
G1 X121.948 Y27.92 E.05456
G1 X121.642 Y29.102 E.06126
G1 X121.268 Y30.4 E.06778
G1 X120.967 Y31.293 E.0473
G1 X120.603 Y32.172 E.04775
G1 X120.183 Y32.985 E.04594
G1 X119.707 Y33.767 E.04591
G1 X119.16 Y34.53 E.04712
G1 X118.53 Y35.258 E.0483
G1 X117.735 Y36.003 E.0547
G1 X116.839 Y36.66 E.05578
G1 X115.913 Y37.177 E.05321
G1 X114.94 Y37.563 E.05252
G1 X113.835 Y37.833 E.05711
G1 X112.676 Y37.946 E.05845
G1 X111.267 Y37.844 E.07089
G1 X109.93 Y37.502 E.06924
G1 X109.079 Y37.134 E.04655
G1 X108.156 Y36.591 E.05375
G1 X107.453 Y36.044 E.04467
G1 X106.793 Y35.406 E.04606
G1 X106.213 Y34.702 E.04578
G1 X105.721 Y33.956 E.04488
G1 X105.305 Y33.16 E.04504
G1 X104.967 Y32.35 E.04409
G1 X104.707 Y31.504 E.04439
G1 X104.512 Y30.609 E.04598
G1 X104.39 Y29.643 E.04884
G1 X104.358 Y28.661 E.04934
G1 X104.389 Y27.881 E.03918
G1 X104.734 Y27.895 F7800
G1 F1800
G1 X104.837 Y26.864 E.05199
G1 X104.954 Y26.183 E.03465
G1 X105.387 Y24.131 E.10524
G1 X105.639 Y22.83 E.06655
G1 X105.869 Y21.888 E.04863
G1 X106.103 Y21.206 E.03621
G1 X106.416 Y20.515 E.03804
G1 X106.818 Y19.843 E.0393
G1 X107.41 Y19.116 E.04707
G1 X108.523 Y18.197 E.07242
G1 X109.782 Y17.621 E.06949
G1 X110.929 Y17.421 E.05847
G1 X111.842 Y17.458 E.04585
G1 X112.312 Y17.562 E.02413
G1 X112.748 Y17.413 E.02317
G1 X114.631 Y17.307 E.09462
G1 X115.761 Y17.579 E.05833
G1 X116.654 Y17.997 E.04949
G1 X117.204 Y18.387 E.03384
G1 X117.548 Y18.403 E.01727
G1 X118.814 Y18.728 E.06562
G1 X119.944 Y19.392 E.06576
G1 X121.029 Y20.5 E.07784
G1 X121.551 Y21.409 E.05257
G1 X121.865 Y22.269 E.04598
G1 X122.039 Y23.128 E.04396
G1 X122.092 Y23.98 E.04285
G1 X122.031 Y25.09 E.05581
G1 X121.944 Y25.974 E.04455
G1 X121.832 Y26.804 E.04206
G1 X121.613 Y27.838 E.05301
G1 X121.31 Y29.009 E.06071
G1 X120.937 Y30.301 E.06747
G1 X120.642 Y31.178 E.04643
G1 X120.288 Y32.033 E.04649
G1 X119.885 Y32.811 E.04396
G1 X119.423 Y33.571 E.04464
G1 X118.893 Y34.31 E.04562
G1 X118.287 Y35.013 E.04657
G1 X117.523 Y35.732 E.05268
G1 X116.661 Y36.365 E.05366
G1 X115.775 Y36.861 E.05096
G1 X114.825 Y37.238 E.05132
G1 X113.766 Y37.495 E.05467
G1 X112.657 Y37.601 E.05589
G1 X111.337 Y37.506 E.06643
G1 X110.054 Y37.179 E.06645
G1 X109.244 Y36.831 E.04424
G1 X108.358 Y36.311 E.05154
G1 X107.686 Y35.79 E.04269
G1 X107.04 Y35.165 E.04509
G1 X106.486 Y34.491 E.04383
G1 X106.014 Y33.774 E.04307
G1 X105.615 Y33.008 E.04336
G1 X105.289 Y32.225 E.04256
G1 X105.039 Y31.41 E.04277
G1 X104.851 Y30.543 E.04451
G1 X104.733 Y29.608 E.04728
G1 X104.703 Y28.656 E.04782
G1 X104.731 Y27.954 E.03524
G1 X105.075 Y27.968 F7800
G1 F1800
G1 X105.178 Y26.916 E.05304
G1 X105.292 Y26.251 E.03387
G1 X105.725 Y24.2 E.10522
G1 X105.977 Y22.899 E.06648
G1 X106.198 Y21.992 E.04685
G1 X106.421 Y21.34 E.03459
G1 X106.718 Y20.683 E.03618
G1 X107.094 Y20.05 E.03697
G1 X107.644 Y19.369 E.04391
G1 X108.688 Y18.5 E.0682
G1 X109.864 Y17.957 E.06503
G1 X110.934 Y17.766 E.05454
G1 X111.812 Y17.802 E.04407
G1 X112.334 Y17.922 E.02689
G1 X112.795 Y17.756 E.0246
G1 X114.576 Y17.649 E.08955
G1 X115.631 Y17.899 E.05439
G1 X116.493 Y18.302 E.04777
G1 X117.089 Y18.729 E.03676
G1 X117.483 Y18.742 E.0198
G1 X118.663 Y19.039 E.06105
G1 X119.715 Y19.65 E.06109
G1 X120.741 Y20.692 E.07339
G1 X121.232 Y21.542 E.04926
G1 X121.53 Y22.351 E.04328
G1 X121.696 Y23.162 E.0415
G1 X121.747 Y23.971 E.04072
G1 X121.687 Y25.068 E.0551
G1 X121.602 Y25.937 E.04383
G1 X121.492 Y26.752 E.04126
G1 X121.278 Y27.755 E.05147
G1 X120.978 Y28.916 E.06017
G1 X120.607 Y30.201 E.06716
G1 X120.318 Y31.062 E.04557
G1 X119.972 Y31.894 E.04523
G1 X119.587 Y32.637 E.04199
G1 X119.139 Y33.376 E.04337
G1 X118.627 Y34.091 E.04413
G1 X118.044 Y34.768 E.04481
G1 X117.294 Y35.473 E.05168
G1 X116.466 Y36.08 E.05153
G1 X115.617 Y36.554 E.04878
G1 X114.709 Y36.913 E.04899
G1 X113.697 Y37.156 E.05224
G1 X112.639 Y37.257 E.05332
G1 X111.378 Y37.163 E.06349
G1 X110.177 Y36.857 E.06219
G1 X109.409 Y36.528 E.04196
M73 P0 R94
G1 X108.56 Y36.032 E.04933
G1 X107.918 Y35.535 E.04072
G1 X107.3 Y34.938 E.04313
G1 X106.769 Y34.293 E.04194
G1 X106.307 Y33.592 E.04215
G1 X105.924 Y32.855 E.04166
G1 X105.61 Y32.1 E.04103
G1 X105.374 Y31.33 E.04044
G1 X105.192 Y30.493 E.04299
G1 X105.077 Y29.574 E.04648
G1 X105.048 Y28.651 E.0463
G1 X105.073 Y28.028 E.0313
G1 X105.417 Y28.042 F7800
G1 F1800
G1 X105.519 Y26.969 E.0541
G1 X105.631 Y26.319 E.03308
G1 X106.063 Y24.268 E.1052
G1 X106.315 Y22.969 E.06641
G1 X106.527 Y22.096 E.04509
G1 X106.739 Y21.474 E.03298
G1 X107.019 Y20.85 E.03433
G1 X107.371 Y20.256 E.03466
G1 X107.879 Y19.622 E.04075
G1 X108.855 Y18.803 E.06397
G1 X109.949 Y18.292 E.06056
G1 X110.94 Y18.112 E.05055
G1 X111.781 Y18.146 E.04225
G1 X112.359 Y18.282 E.02979
G1 X112.845 Y18.098 E.02609
G1 X114.523 Y17.99 E.0844
G1 X115.501 Y18.219 E.0504
G1 X116.332 Y18.608 E.04602
G1 X116.974 Y19.072 E.03977
G1 X117.42 Y19.082 E.02239
G1 X118.513 Y19.351 E.05646
G1 X119.486 Y19.909 E.05634
G1 X120.48 Y20.918 E.07106
G1 X120.914 Y21.675 E.0438
G1 X121.195 Y22.434 E.04062
G1 X121.352 Y23.196 E.03904
G1 X121.402 Y23.963 E.03857
G1 X121.343 Y25.045 E.0544
G1 X121.259 Y25.9 E.04311
G1 X121.151 Y26.699 E.04045
G1 X120.943 Y27.672 E.04994
G1 X120.646 Y28.822 E.05962
G1 X120.277 Y30.102 E.06686
G1 X119.997 Y30.935 E.0441
G1 X119.656 Y31.755 E.04456
G1 X119.289 Y32.463 E.04002
G1 X118.854 Y33.181 E.04212
G1 X118.36 Y33.872 E.04264
G1 X117.801 Y34.523 E.04307
G1 X117.081 Y35.202 E.04964
G1 X116.288 Y35.784 E.04938
G1 X115.459 Y36.247 E.04765
G1 X114.595 Y36.588 E.04663
G1 X113.629 Y36.818 E.0498
G1 X112.622 Y36.912 E.05077
G1 X111.448 Y36.825 E.05909
G1 X110.3 Y36.534 E.05943
G1 X109.573 Y36.225 E.03966
G1 X108.762 Y35.752 E.04711
G1 X108.151 Y35.28 E.03873
G1 X107.547 Y34.697 E.04214
G1 X107.041 Y34.082 E.03997
G1 X106.6 Y33.41 E.04033
G1 X106.234 Y32.703 E.03996
G1 X105.932 Y31.976 E.03951
G1 X105.71 Y31.249 E.03814
G1 X105.533 Y30.442 E.04149
G1 X105.421 Y29.555 E.04487
G1 X105.393 Y28.647 E.04557
G1 X105.415 Y28.102 E.02736
G1 X105.759 Y28.116 F7800
G1 F1800
G1 X105.86 Y27.021 E.05517
G1 X105.969 Y26.387 E.0323
G1 X106.401 Y24.336 E.10518
G1 X106.652 Y23.039 E.06635
G1 X106.856 Y22.199 E.04334
G1 X107.057 Y21.607 E.03138
G1 X107.322 Y21.016 E.03249
G1 X107.649 Y20.461 E.03237
G1 X108.115 Y19.874 E.03762
G1 X109.024 Y19.104 E.05975
G1 X110.034 Y18.626 E.05609
G1 X110.945 Y18.457 E.0465
G1 X111.749 Y18.49 E.04038
G1 X112.385 Y18.644 E.03284
G1 X112.897 Y18.44 E.02764
G1 X114.472 Y18.332 E.0792
G1 X115.372 Y18.539 E.04637
G1 X116.17 Y18.913 E.04424
G1 X116.86 Y19.416 E.04286
G1 X117.36 Y19.422 E.02507
G1 X118.365 Y19.663 E.05185
G1 X119.259 Y20.17 E.05159
G1 X120.193 Y21.11 E.06651
G1 X120.596 Y21.81 E.04052
G1 X120.86 Y22.518 E.03794
G1 X121.009 Y23.231 E.03656
G1 X121.057 Y23.955 E.03639
G1 X120.998 Y25.023 E.05368
G1 X120.916 Y25.863 E.04239
G1 X120.81 Y26.646 E.03965
G1 X120.608 Y27.589 E.0484
G1 X120.314 Y28.729 E.05908
G1 X119.946 Y30.003 E.06654
G1 X119.672 Y30.82 E.04323
G1 X119.34 Y31.616 E.04329
G1 X118.991 Y32.29 E.03807
G1 X118.569 Y32.986 E.04086
G1 X118.093 Y33.654 E.04115
G1 X117.557 Y34.279 E.04133
G1 X116.868 Y34.93 E.04758
G1 X116.093 Y35.5 E.04829
G1 X115.302 Y35.94 E.04543
G1 X114.48 Y36.262 E.04427
G1 X113.562 Y36.48 E.04737
G1 X112.605 Y36.567 E.04821
G1 X111.489 Y36.482 E.05618
G1 X110.422 Y36.212 E.05523
G1 X109.737 Y35.921 E.03738
G1 X108.963 Y35.471 E.04489
G1 X108.383 Y35.025 E.03674
G1 X107.807 Y34.47 E.04014
G1 X107.314 Y33.87 E.03899
G1 X106.894 Y33.229 E.03848
G1 X106.544 Y32.551 E.03827
G1 X106.254 Y31.852 E.038
G1 X106.045 Y31.168 E.03586
G1 X105.874 Y30.39 E.03997
G1 X105.764 Y29.52 E.04406
G1 X105.738 Y28.643 E.04403
G1 X105.757 Y28.176 E.02343
G1 X106.101 Y28.19 F7800
G1 F1800
G1 X106.201 Y27.074 E.05625
G1 X106.307 Y26.455 E.03151
G1 X106.739 Y24.405 E.10515
G1 X106.99 Y23.108 E.06629
G1 X107.186 Y22.302 E.0416
G1 X107.375 Y21.74 E.02979
G1 X107.624 Y21.182 E.03066
G1 X107.927 Y20.664 E.03011
G1 X108.353 Y20.125 E.0345
G1 X109.194 Y19.405 E.05554
G1 X110.122 Y18.961 E.05162
G1 X110.951 Y18.803 E.04239
G1 X111.717 Y18.834 E.03847
G1 X112.414 Y19.006 E.03603
G1 X112.952 Y18.782 E.02925
G1 X114.421 Y18.674 E.07393
G1 X115.244 Y18.86 E.04233
G1 X115.985 Y19.204 E.04098
G1 X116.539 Y19.597 E.03411
G1 X116.707 Y19.761 E.01179
G1 X117.302 Y19.762 E.02984
G1 X118.218 Y19.976 E.04722
G1 X119.033 Y20.431 E.04681
G1 X119.906 Y21.303 E.06194
G1 X120.278 Y21.945 E.03724
G1 X120.526 Y22.602 E.03525
G1 X120.666 Y23.267 E.03408
G1 X120.712 Y23.946 E.03419
G1 X120.654 Y25 E.05295
G1 X120.573 Y25.826 E.04167
G1 X120.469 Y26.593 E.03885
G1 X120.273 Y27.507 E.04687
G1 X119.982 Y28.636 E.05853
G1 X119.616 Y29.904 E.06623
G1 X119.347 Y30.704 E.04236
G1 X119.025 Y31.477 E.04202
G1 X118.693 Y32.116 E.03614
G1 X118.285 Y32.791 E.03962
G1 X117.826 Y33.435 E.03967
G1 X117.313 Y34.035 E.0396
G1 X116.655 Y34.659 E.04552
G1 X115.915 Y35.204 E.04613
G1 X115.165 Y35.623 E.04311
G1 X114.366 Y35.936 E.04305
G1 X113.495 Y36.141 E.04491
G1 X112.589 Y36.222 E.04567
G1 X111.559 Y36.144 E.05184
G1 X110.544 Y35.889 E.05252
G1 X109.9 Y35.617 E.03508
G1 X109.164 Y35.191 E.04267
G1 X108.615 Y34.769 E.03475
G1 X108.066 Y34.243 E.03814
G1 X107.597 Y33.673 E.03706
G1 X107.187 Y33.047 E.03755
G1 X106.853 Y32.4 E.03657
G1 X106.581 Y31.743 E.03568
G1 X106.38 Y31.087 E.0344
G1 X106.216 Y30.339 E.03845
G1 X106.109 Y29.501 E.04241
G1 X106.083 Y28.638 E.0433
G1 X106.098 Y28.25 E.0195
G1 X106.443 Y28.264 F7800
G1 F1800
G1 X106.542 Y27.126 E.05733
G1 X106.645 Y26.523 E.03071
G1 X107.077 Y24.473 E.10513
G1 X107.328 Y23.177 E.06623
G1 X107.515 Y22.405 E.03988
G1 X107.694 Y21.872 E.0282
G1 X107.927 Y21.347 E.02885
G1 X108.207 Y20.867 E.02788
G1 X108.592 Y20.374 E.03139
G1 X109.366 Y19.705 E.05133
G1 X110.211 Y19.295 E.04715
G1 X110.958 Y19.148 E.03821
G1 X111.685 Y19.178 E.03651
G1 X112.445 Y19.37 E.03937
G1 X113.01 Y19.123 E.03092
G1 X114.373 Y19.017 E.06861
G1 X115.116 Y19.181 E.03821
G1 X115.824 Y19.51 E.03919
G1 X116.325 Y19.869 E.03093
G1 X116.565 Y20.107 E.01698
G1 X117.246 Y20.103 E.03418
G1 X118.075 Y20.29 E.0426
G1 X118.808 Y20.694 E.042
G1 X119.62 Y21.497 E.05733
G1 X119.961 Y22.081 E.03395
G1 X120.191 Y22.688 E.03255
G1 X120.323 Y23.303 E.03158
G1 X120.367 Y23.938 E.03196
G1 X120.31 Y24.977 E.05222
G1 X120.23 Y25.789 E.04094
G1 X120.128 Y26.54 E.03805
G1 X119.939 Y27.424 E.04534
G1 X119.65 Y28.543 E.05799
G1 X119.286 Y29.805 E.06592
G1 X119.026 Y30.577 E.04088
G1 X118.709 Y31.337 E.04135
G1 X118.395 Y31.942 E.03421
G1 X118 Y32.597 E.03838
G1 X117.559 Y33.217 E.03818
G1 X117.057 Y33.804 E.03875
G1 X116.426 Y34.401 E.04363
G1 X115.737 Y34.909 E.04295
G1 X115.028 Y35.307 E.04078
G1 X114.252 Y35.61 E.04181
G1 X113.429 Y35.802 E.04242
G1 X112.573 Y35.878 E.04312
G1 X111.6 Y35.802 E.04896
G1 X110.665 Y35.566 E.0484
G1 X110.063 Y35.313 E.03281
G1 X109.365 Y34.91 E.04044
G1 X108.846 Y34.513 E.03276
G1 X108.326 Y34.016 E.03611
G1 X107.87 Y33.461 E.03605
G1 X107.481 Y32.866 E.03566
G1 X107.163 Y32.248 E.03487
G1 X106.903 Y31.619 E.0342
G1 X106.716 Y31.006 E.03215
G1 X106.557 Y30.287 E.03694
G1 X106.453 Y29.482 E.04076
G1 X106.428 Y28.634 E.04257
G1 X106.44 Y28.324 E.01556
G1 X106.784 Y28.338 F7800
G1 F1800
G1 X106.797 Y28.029 E.01554
G1 X106.883 Y27.178 E.04291
G1 X106.983 Y26.591 E.02991
G1 X107.415 Y24.541 E.1051
G1 X107.666 Y23.247 E.06618
G1 X107.844 Y22.507 E.03818
G1 X108.013 Y22.004 E.02662
G1 X108.231 Y21.511 E.02706
G1 X108.487 Y21.068 E.02568
G1 X108.832 Y20.622 E.0283
G1 X109.539 Y20.004 E.04713
G1 X110.302 Y19.628 E.04269
G1 X110.967 Y19.493 E.03404
G1 X111.619 Y19.517 E.03276
G1 X112.256 Y19.677 E.03296
G1 X112.435 Y19.756 E.00982
G1 X113.07 Y19.464 E.03508
G1 X114.324 Y19.359 E.06314
G1 X115.022 Y19.513 E.0359
G1 X115.662 Y19.814 E.03548
G1 X116.111 Y20.139 E.02779
G1 X116.455 Y20.487 E.02455
G1 X116.66 Y20.451 E.01042
G1 X117.193 Y20.444 E.0268
G1 X117.933 Y20.606 E.03799
G1 X118.585 Y20.958 E.03716
G1 X119.335 Y21.692 E.05269
G1 X119.644 Y22.219 E.03064
G1 X119.857 Y22.774 E.02985
G1 X119.98 Y23.34 E.02908
G1 X120.022 Y23.931 E.0297
G1 X119.966 Y24.955 E.05147
G1 X119.887 Y25.752 E.04021
G1 X119.787 Y26.487 E.03724
G1 X119.604 Y27.341 E.04381
G1 X119.318 Y28.449 E.05745
G1 X118.955 Y29.706 E.06561
G1 X118.701 Y30.461 E.04
G1 X118.394 Y31.198 E.04007
G1 X118.097 Y31.769 E.0323
G1 X117.715 Y32.403 E.03714
G1 X117.283 Y33.011 E.03745
G1 X116.801 Y33.572 E.0371
G1 X116.197 Y34.143 E.04173
G1 X115.541 Y34.624 E.04082
G1 X114.87 Y35 E.03858
G1 X114.139 Y35.284 E.03938
