; generated by PrusaSlicer 2.7.1+win64 on 2024-02-15 at 01:01:41 UTC

; 

; external perimeters extrusion width = 0.45mm
; perimeters extrusion width = 0.45mm
; infill extrusion width = 0.45mm
; solid infill extrusion width = 0.45mm
; top infill extrusion width = 0.40mm
; support material extrusion width = 0.35mm
; first layer extrusion width = 0.42mm

M104 S200 ; set temperature
;TYPE:Custom
G28 ; home all axes
G1 Z5 F5000 ; lift nozzle
M109 S200 ; set temperature and wait for it to be reached
G21 ; set units to millimeters
G90 ; use absolute coordinates
M82 ; use absolute distances for extrusion
G92 E0
; Filament gcode
M107
;LAYER_CHANGE
;Z:0.35
;HEIGHT:0.35
G1 Z.35 F7800
G1 E-2 F2400
G92 E0
G1 X48.195 Y55.428 F7800
G1 E2 F2400
;TYPE:Skirt/Brim
;WIDTH:0.42
G1 F1800
G1 X49.937 Y54.013 E2.11263
G1 X53.002 Y53.224 E2.27146
G1 X111.795 Y53.224 E5.22204
G1 X114.003 Y53.621 E5.33463
G1 X115.936 Y54.762 E5.44728
G1 X117.626 Y57.07 E5.59084
G1 X142.697 Y115.568 E8.78488
G1 X143.21 Y118.067 E8.91291
G1 X143.21 Y135.075 E9.76647
G1 X142.813 Y137.284 E9.87911
G1 X141.672 Y139.216 E9.99172
G1 X139.93 Y140.63 E10.10432
G1 X136.865 Y141.42 E10.26317
G1 X94.787 Y141.42 E12.37489
G1 X92.578 Y141.023 E12.48753
G1 X90.469 Y139.724 E12.61184
G1 X51.471 Y103.511 E15.28267
G1 X48.516 Y100.563 E15.49215
G1 X47.235 Y98.72 E15.60479
G1 X46.657 Y96.076 E15.74062
G1 X46.657 Y59.569 E17.57276
G1 X47.054 Y57.36 E17.6854
G1 X48.165 Y55.479 E17.79504
G1 E15.79504 F2400
G92 E0
G1 X48.165 Y55.479 F7800
G1 X111.795 Y118.067
G1 E2 F2400
;TYPE:Support material
G1 F1800
G1 X136.865 Y118.067 E3.25816
G1 X136.865 Y135.075 E4.11172
G1 X114.286 Y135.075 E5.24487
G1 X114.286 Y131.818 E5.40833
G1 X129.735 Y131.818 E6.18365
G1 X129.99 Y131.563 E6.20175
G1 X129.99 Y125.351 E6.5135
G1 X129.735 Y124.526 E6.55684
G1 X129.339 Y124.108 E6.58574
G1 X128.471 Y123.795 E6.63205
G1 X111.45 Y123.827 E7.48627
G1 X110.426 Y123.746 E7.53782
G1 X109.443 Y123.51 E7.58855
G1 X108.509 Y123.123 E7.63929
G1 X107.647 Y122.595 E7.69002
G1 X106.878 Y121.938 E7.74078
G1 X106.221 Y121.169 E7.79154
G1 X105.693 Y120.307 E7.84227
G1 X105.306 Y119.373 E7.89301
G1 X105.07 Y118.39 E7.94374
G1 X104.99 Y117.365 E7.99534
G1 X104.99 Y67.573 E10.4942
G1 X104.718 Y66.645 E10.54273
G1 X104.416 Y66.278 E10.56658
G1 X103.472 Y65.922 E10.61721
G1 X61.396 Y65.922 E12.72883
G1 X60.452 Y66.278 E12.77946
G1 X60.149 Y66.645 E12.80334
G1 X59.878 Y67.573 E12.85186
G1 X59.878 Y89.988 E13.97678
G1 X60.186 Y90.895 E14.02485
G1 X60.551 Y91.236 E14.04992
G1 X61.328 Y91.498 E14.09107
G1 X63.536 Y91.499 E14.20188
G1 X64.29 Y91.253 E14.24168
G1 X64.716 Y90.837 E14.27156
G1 X64.99 Y89.989 E14.31628
G1 X64.99 Y78.789 E14.87836
G1 X65.019 Y78.169 E14.90951
G1 X65.226 Y76.982 E14.96998
G1 X65.646 Y75.803 E15.03279
G1 X66.567 Y74.311 E15.12078
G1 X67.003 Y73.81 E15.15411
G1 X67.826 Y73.075 E15.20949
G1 X68.873 Y72.439 E15.27097
G1 X70.361 Y71.951 E15.34956
G1 X71.443 Y71.861 E15.40405
G1 X93.951 Y71.875 E16.53363
G1 X95.419 Y72.199 E16.60908
G1 X96.847 Y72.935 E16.6897
G1 X98.01 Y73.969 E16.7678
G1 X98.949 Y75.267 E16.8482
G1 X99.605 Y76.845 E16.93396
G1 X99.809 Y77.84 E16.98493
G1 X99.878 Y78.727 E17.02958
G1 X99.878 Y131.563 E19.6812
G1 X100.133 Y131.818 E19.6993
G1 X103.438 Y131.818 E19.86516
G1 X103.438 Y135.075 E20.02862
G1 X94.787 Y135.075 E20.46278
G1 X94.787 Y82.148 E23.11897
G1 X92.001 Y82.148 E23.25879
G1 X92.001 Y79.362 E23.39861
G1 X89.215 Y79.362 E23.53843
G1 X89.215 Y76.577 E23.6782
G1 X75.582 Y76.577 E24.36238
G1 X75.582 Y79.362 E24.50215
G1 X72.796 Y79.362 E24.64197
G1 X72.796 Y82.148 E24.78179
G1 X70.01 Y82.148 E24.92161
G1 X70.01 Y96.076 E25.6206
G1 X67.225 Y96.076 E25.76037
G1 X67.225 Y98.862 E25.90019
G1 X55.788 Y98.862 E26.47417
G1 X55.788 Y96.076 E26.61399
G1 X53.002 Y96.076 E26.75381
G1 X53.002 Y59.569 E28.58595
G1 X111.795 Y59.569 E31.53653
G1 X111.795 Y118.015 E34.4697
G1 E32.4697 F2400
G92 E0
G1 X111.795 Y118.015 F7800
G1 X136.32 Y134.92
G1 E2 F2400
G1 F1800
G1 X136.32 Y118.377 E2.83023
G1 X135.631 Y118.377 E2.86481
G1 X135.631 Y134.764 E3.68721
G1 X134.941 Y134.764 E3.72184
G1 X134.941 Y118.377 E4.54424
G1 X134.251 Y118.377 E4.57887
G1 X134.251 Y134.764 E5.40127
G1 X133.561 Y134.764 E5.4359
G1 X133.561 Y118.377 E6.2583
G1 X132.872 Y118.377 E6.29288
G1 X132.872 Y134.764 E7.11528
G1 X132.182 Y134.764 E7.14991
G1 X132.182 Y118.377 E7.97231
G1 X131.492 Y118.377 E8.00694
G1 X131.492 Y134.764 E8.82934
G1 X130.802 Y134.764 E8.86397
G1 X130.802 Y118.377 E9.68637
G1 X130.112 Y118.377 E9.721
G1 X130.112 Y124.636 E10.03511
G1 X129.991 Y124.347 E10.05083
G1 X129.632 Y123.936 E10.07822
G1 X129.423 Y123.807 E10.09055
G1 X129.423 Y118.377 E10.36306
G1 X128.733 Y118.377 E10.39769
G1 X128.733 Y123.545 E10.65705
G1 X128.043 Y123.484 E10.69181
G1 X128.043 Y118.377 E10.94811
G1 X127.353 Y118.377 E10.98274
G1 X127.353 Y123.484 E11.23904
G1 X126.664 Y123.484 E11.27362
G1 X126.664 Y118.377 E11.52992
G1 X125.974 Y118.377 E11.56455
G1 X125.974 Y123.484 E11.82085
G1 X125.284 Y123.486 E11.85548
G1 X125.284 Y118.377 E12.11188
G1 X124.594 Y118.377 E12.14651
G1 X124.594 Y123.487 E12.40296
G1 X123.904 Y123.489 E12.43759
G1 X123.904 Y118.377 E12.69414
G1 X123.215 Y118.377 E12.72872
G1 X123.215 Y123.49 E12.98532
G1 X122.525 Y123.492 E13.01995
G1 X122.525 Y118.377 E13.27665
G1 X121.835 Y118.377 E13.31128
G1 X121.835 Y123.493 E13.56803
G1 X121.145 Y123.495 E13.60266
G1 X121.145 Y118.377 E13.85951
G1 X120.456 Y118.377 E13.89409
G1 X120.456 Y123.496 E14.15099
G1 X119.766 Y123.498 E14.18562
G1 X119.766 Y118.377 E14.44262
G1 X119.076 Y118.377 E14.47725
G1 X119.076 Y123.499 E14.7343
G1 X118.386 Y123.501 E14.76893
G1 X118.386 Y118.377 E15.02608
G1 X117.696 Y118.377 E15.06071
G1 X117.696 Y123.502 E15.31791
G1 X117.007 Y123.504 E15.35249
G1 X117.007 Y118.377 E15.60979
G1 X116.317 Y118.377 E15.64442
G1 X116.317 Y123.505 E15.90177
G1 X115.627 Y123.507 E15.9364
G1 X115.627 Y118.377 E16.19385
G1 X114.937 Y118.377 E16.22848
G1 X114.937 Y123.508 E16.48598
G1 X114.248 Y123.51 E16.52056
G1 X114.248 Y118.377 E16.77816
G1 X113.558 Y118.377 E16.81279
G1 X113.558 Y123.512 E17.07049
G1 X112.868 Y123.513 E17.10512
G1 X112.868 Y118.377 E17.36287
G1 X112.178 Y118.377 E17.3975
G1 X112.178 Y123.515 E17.65536
G1 X111.488 Y123.516 E17.68999
G1 X111.484 Y59.879 E20.88367
G1 X110.799 Y59.879 E20.91805
G1 X110.799 Y123.464 E24.10912
G1 X110.109 Y123.351 E24.14421
G1 X110.109 Y59.879 E27.32961
G1 X109.419 Y59.879 E27.36424
G1 X109.419 Y123.164 E30.54026
G1 X108.729 Y122.878 E30.57775
G1 X108.729 Y59.879 E33.73941
G1 X108.04 Y59.879 E33.77399
G1 X108.04 Y122.471 E36.91523
G1 X107.35 Y121.933 E36.95914
G1 X107.35 Y59.879 E40.07338
G1 X106.66 Y59.879 E40.10801
G1 X106.66 Y121.205 E43.18571
G1 X105.97 Y120.165 E43.24835
G1 X105.97 Y59.879 E46.27386
G1 X105.28 Y59.879 E46.30849
G1 X105.28 Y67.43 E46.68744
G1 X105.005 Y66.522 E46.73505
G1 X104.591 Y66.021 E46.76767
G1 X104.591 Y59.879 E47.07591
G1 X103.901 Y59.879 E47.11054
G1 X103.901 Y65.733 E47.40433
G1 X103.627 Y65.634 E47.41895
G1 X103.211 Y65.612 E47.43986
G1 X103.211 Y59.879 E47.72758
G1 X102.521 Y59.879 E47.76221
G1 X102.521 Y65.612 E48.04993
G1 X101.832 Y65.612 E48.08451
G1 X101.832 Y59.879 E48.37223
G1 X101.142 Y59.879 E48.40686
G1 X101.142 Y65.612 E48.69458
G1 X100.452 Y65.612 E48.72921
G1 X100.452 Y59.879 E49.01693
G1 X99.762 Y59.879 E49.05156
G1 X99.762 Y65.612 E49.33928
G1 X99.072 Y65.612 E49.37391
G1 X99.072 Y59.879 E49.66163
G1 X98.383 Y59.879 E49.69621
G1 X98.383 Y65.612 E49.98393
G1 X97.693 Y65.612 E50.01856
G1 X97.693 Y59.879 E50.30628
G1 X97.003 Y59.879 E50.34091
G1 X97.003 Y65.612 E50.62863
G1 X96.313 Y65.612 E50.66326
G1 X96.313 Y59.879 E50.95098
G1 X95.624 Y59.879 E50.98556
G1 X95.624 Y65.612 E51.27328
G1 X94.934 Y65.612 E51.30791
G1 X94.934 Y59.879 E51.59563
G1 X94.244 Y59.879 E51.63026
G1 X94.244 Y65.612 E51.91798
G1 X93.554 Y65.612 E51.95261
G1 X93.554 Y59.879 E52.24033
G1 X92.864 Y59.879 E52.27496
G1 X92.864 Y65.612 E52.56268
G1 X92.175 Y65.612 E52.59726
G1 X92.175 Y59.879 E52.88498
G1 X91.485 Y59.879 E52.91961
G1 X91.485 Y65.612 E53.20733
G1 X90.795 Y65.612 E53.24196
G1 X90.795 Y59.879 E53.52968
G1 X90.105 Y59.879 E53.56431
G1 X90.105 Y65.612 E53.85203
G1 X89.416 Y65.612 E53.88661
G1 X89.416 Y59.879 E54.17433
G1 X88.726 Y59.879 E54.20896
G1 X88.726 Y65.612 E54.49668
G1 X88.036 Y65.612 E54.53131
G1 X88.036 Y59.879 E54.81903
G1 X87.346 Y59.879 E54.85366
G1 X87.346 Y65.612 E55.14138
G1 X86.656 Y65.612 E55.17601
G1 X86.656 Y59.879 E55.46373
G1 X85.967 Y59.879 E55.49831
G1 X85.967 Y65.612 E55.78603
G1 X85.277 Y65.612 E55.82066
G1 X85.277 Y59.879 E56.10838
G1 X84.587 Y59.879 E56.14301
G1 X84.587 Y65.612 E56.43073
G1 X83.897 Y65.612 E56.46536
G1 X83.897 Y59.879 E56.75308
G1 X83.208 Y59.879 E56.78766
G1 X83.208 Y65.612 E57.07538
G1 X82.518 Y65.612 E57.11001
G1 X82.518 Y59.879 E57.39773
G1 X81.828 Y59.879 E57.43236
G1 X81.828 Y65.612 E57.72008
G1 X81.138 Y65.612 E57.75471
G1 X81.138 Y59.879 E58.04243
G1 X80.448 Y59.879 E58.07706
G1 X80.448 Y65.612 E58.36478
G1 X79.759 Y65.612 E58.39936
G1 X79.759 Y59.879 E58.68708
G1 X79.069 Y59.879 E58.72171
G1 X79.069 Y65.612 E59.00943
G1 X78.379 Y65.612 E59.04406
G1 X78.379 Y59.879 E59.33178
G1 X77.689 Y59.879 E59.36641
G1 X77.689 Y65.612 E59.65413
G1 X77 Y65.612 E59.68871
G1 X77 Y59.879 E59.97643
G1 X76.31 Y59.879 E60.01106
G1 X76.31 Y65.612 E60.29878
G1 X75.62 Y65.612 E60.33341
G1 X75.62 Y59.879 E60.62113
G1 X74.93 Y59.879 E60.65576
G1 X74.93 Y65.612 E60.94348
G1 X74.24 Y65.612 E60.97811
G1 X74.24 Y59.879 E61.26583
G1 X73.551 Y59.879 E61.30041
G1 X73.551 Y65.612 E61.58813
G1 X72.861 Y65.612 E61.62276
G1 X72.861 Y59.879 E61.91048
G1 X72.171 Y59.879 E61.94511
G1 X72.171 Y65.612 E62.23283
G1 X71.481 Y65.612 E62.26746
G1 X71.481 Y59.879 E62.55518
G1 X70.792 Y59.879 E62.58976
G1 X70.792 Y65.612 E62.87748
G1 X70.102 Y65.612 E62.91211
G1 X70.102 Y59.879 E63.19983
G1 X69.412 Y59.879 E63.23446
G1 X69.412 Y65.612 E63.52218
G1 X68.722 Y65.612 E63.55681
G1 X68.722 Y59.879 E63.84453
G1 X68.032 Y59.879 E63.87916
G1 X68.032 Y65.612 E64.16688
G1 X67.343 Y65.612 E64.20146
G1 X67.343 Y59.879 E64.48918
G1 X66.653 Y59.879 E64.52381
G1 X66.653 Y65.612 E64.81153
G1 X65.963 Y65.612 E64.84616
G1 X65.963 Y59.879 E65.13388
G1 X65.273 Y59.879 E65.16851
G1 X65.273 Y65.612 E65.45623
G1 X64.584 Y65.612 E65.49081
G1 X64.584 Y59.879 E65.77853
G1 X63.894 Y59.879 E65.81316
G1 X63.894 Y65.612 E66.10088
G1 X63.204 Y65.612 E66.13551
G1 X63.204 Y59.879 E66.42323
G1 X62.514 Y59.879 E66.45786
G1 X62.514 Y65.612 E66.74558
G1 X61.824 Y65.612 E66.78021
G1 X61.824 Y59.879 E67.06793
G1 X61.135 Y59.879 E67.10251
G1 X61.135 Y65.673 E67.39329
G1 X60.445 Y65.923 E67.43012
G1 X60.445 Y59.879 E67.73344
G1 X59.755 Y59.879 E67.76807
G1 X59.755 Y66.876 E68.11922
G1 X59.567 Y67.55 E68.15434
G1 X59.567 Y90.013 E69.28167
G1 X59.755 Y90.647 E69.31486
G1 X59.755 Y98.551 E69.71153
G1 X60.445 Y98.551 E69.74616
G1 X60.445 Y91.528 E70.09862
G1 X61.135 Y91.761 E70.13517
G1 X61.135 Y98.551 E70.47593
G1 X61.824 Y98.551 E70.51051
G1 X61.824 Y91.82 E70.84831
G1 X62.514 Y91.82 E70.88294
G1 X62.514 Y98.551 E71.22074
G1 X63.204 Y98.551 E71.25537
G1 X63.204 Y91.82 E71.59317
G1 X63.894 Y91.709 E71.62824
G1 X63.894 Y98.551 E71.97161
G1 X64.584 Y98.551 E72.00624
G1 X64.584 Y91.432 E72.36351
G1 X64.999 Y90.971 E72.39464
G1 X65.273 Y90.155 E72.43784
G1 X65.273 Y98.551 E72.8592
G1 X65.963 Y98.551 E72.89383
G1 X65.963 Y75.864 E74.0324
G1 X66.653 Y74.717 E74.09958
G1 X66.653 Y98.551 E75.29571
G1 X66.914 Y98.551 E75.30881
G1 X66.914 Y95.766 E75.44858
G1 X67.343 Y95.766 E75.47011
G1 X67.343 Y73.913 E76.56682
G1 X68.011 Y73.325 E76.61148
G1 X68.032 Y95.766 E77.7377
G1 X68.722 Y95.766 E77.77233
G1 X68.722 Y72.872 E78.92129
G1 X69.412 Y72.546 E78.95959
G1 X69.412 Y95.766 E80.12491
G1 X69.7 Y95.766 E80.13936
G1 X69.7 Y81.838 E80.83835
G1 X70.102 Y81.838 E80.85852
G1 X70.102 Y72.331 E81.33564
G1 X70.792 Y72.205 E81.37084
G1 X70.792 Y81.838 E81.85428
G1 X71.481 Y81.838 E81.88886
G1 X71.481 Y72.172 E82.37396
G1 X72.171 Y72.172 E82.40859
G1 X72.171 Y81.838 E82.89369
G1 X72.485 Y81.838 E82.90945
G1 X72.485 Y79.052 E83.04927
G1 X72.861 Y79.052 E83.06814
G1 X72.861 Y72.172 E83.41342
G1 X73.551 Y72.172 E83.44805
G1 X73.551 Y79.052 E83.79333
G1 X74.24 Y79.052 E83.82791
G1 X74.24 Y72.172 E84.17319
G1 X74.93 Y72.172 E84.20782
G1 X74.93 Y79.052 E84.5531
G1 X75.271 Y79.052 E84.57021
G1 X75.271 Y76.266 E84.71003
G1 X75.62 Y76.266 E84.72754
G1 X75.62 Y72.172 E84.933
G1 X76.31 Y72.172 E84.96763
G1 X76.31 Y76.266 E85.17309
G1 X77 Y76.266 E85.20772
G1 X77 Y72.172 E85.41318
G1 X77.689 Y72.172 E85.44776
G1 X77.689 Y76.266 E85.65322
G1 X78.379 Y76.266 E85.68785
G1 X78.379 Y72.172 E85.89331
G1 X79.069 Y72.172 E85.92794
G1 X79.069 Y76.266 E86.1334
G1 X79.759 Y76.266 E86.16803
G1 X79.759 Y72.172 E86.37349
G1 X80.448 Y72.172 E86.40807
G1 X80.448 Y76.266 E86.61353
G1 X81.138 Y76.266 E86.64816
G1 X81.138 Y72.172 E86.85362
G1 X81.828 Y72.172 E86.88825
G1 X81.828 Y76.266 E87.09371
G1 X82.518 Y76.266 E87.12834
G1 X82.518 Y72.172 E87.3338
G1 X83.208 Y72.172 E87.36843
G1 X83.208 Y76.266 E87.57389
G1 X83.897 Y76.266 E87.60847
G1 X83.897 Y72.172 E87.81393
G1 X84.587 Y72.172 E87.84856
G1 X84.587 Y76.266 E88.05402
G1 X85.277 Y76.266 E88.08865
G1 X85.277 Y72.172 E88.29411
G1 X85.967 Y72.172 E88.32874
G1 X85.967 Y76.266 E88.5342
G1 X86.656 Y76.266 E88.56878
G1 X86.656 Y72.172 E88.77424
G1 X87.346 Y72.172 E88.80887
G1 X87.346 Y76.266 E89.01433
G1 X88.036 Y76.266 E89.04896
G1 X88.036 Y72.172 E89.25442
G1 X88.726 Y72.172 E89.28905
G1 X88.726 Y76.266 E89.49451
G1 X89.416 Y76.266 E89.52914
G1 X89.416 Y72.172 E89.7346
G1 X90.105 Y72.172 E89.76918
G1 X90.105 Y79.052 E90.11446
G1 X90.795 Y79.052 E90.14909
G1 X90.795 Y72.172 E90.49437
G1 X91.485 Y72.172 E90.529
G1 X91.485 Y79.052 E90.87428
G1 X92.175 Y79.052 E90.90891
G1 X92.175 Y72.172 E91.25419
G1 X92.864 Y72.172 E91.28877
G1 X92.864 Y81.838 E91.77387
G1 X93.554 Y81.838 E91.8085
G1 X93.554 Y72.168 E92.2938
G1 X94.244 Y72.227 E92.32855
G1 X94.244 Y81.838 E92.81089
G1 X94.934 Y81.838 E92.84552
G1 X94.934 Y72.371 E93.32063
G1 X95.624 Y72.617 E93.35739
G1 X95.624 Y134.764 E96.47629
G1 X96.313 Y134.764 E96.51087
G1 X96.313 Y72.964 E99.61236
G1 X97.003 Y73.438 E99.65437
G1 X97.003 Y134.764 E102.73207
G1 X97.693 Y134.764 E102.7667
G1 X97.693 Y74.087 E105.81183
G1 X98.383 Y74.943 E105.86701
G1 X98.383 Y134.764 E108.86918
G1 X99.072 Y134.764 E108.90376
G1 X99.072 Y76.253 E111.84019
G1 X99.44 Y77.496 E111.90525
G1 X99.567 Y78.731 E111.96756
G1 X99.567 Y131.691 E114.62541
G1 X99.762 Y131.886 E114.63925
G1 X99.762 Y134.764 E114.78369
G1 X100.452 Y134.764 E114.81832
G1 X100.452 Y132.128 E114.95061
G1 X101.142 Y132.128 E114.98524
G1 X101.142 Y134.764 E115.11753
G1 X101.832 Y134.764 E115.15216
G1 X101.832 Y132.128 E115.28445
G1 X102.521 Y132.128 E115.31903
G1 X102.521 Y134.92 E115.45915
G1 E113.45915 F2400
G92 E0
G1 X102.521 Y134.92 F7800
G1 X130.112 Y134.92
G1 E2 F2400
G1 F1800
G1 X130.112 Y131.879 E2.15262
G1 X129.863 Y132.128 E2.17029
G1 X129.423 Y132.128 E2.19237
G1 X129.423 Y134.764 E2.32466
G1 X128.733 Y134.764 E2.35929
G1 X128.733 Y132.128 E2.49158
G1 X128.043 Y132.128 E2.52621
G1 X128.043 Y134.764 E2.6585
G1 X127.353 Y134.764 E2.69313
G1 X127.353 Y132.128 E2.82542
G1 X126.664 Y132.128 E2.86
G1 X126.664 Y134.764 E2.99229
G1 X125.974 Y134.764 E3.02692
G1 X125.974 Y132.128 E3.15921
G1 X125.284 Y132.128 E3.19384
G1 X125.284 Y134.764 E3.32613
G1 X124.594 Y134.764 E3.36076
G1 X124.594 Y132.128 E3.49305
G1 X123.904 Y132.128 E3.52768
G1 X123.904 Y134.764 E3.65997
G1 X123.215 Y134.764 E3.69455
G1 X123.215 Y132.128 E3.82684
G1 X122.525 Y132.128 E3.86147
G1 X122.525 Y134.764 E3.99376
G1 X121.835 Y134.764 E4.02839
G1 X121.835 Y132.128 E4.16068
G1 X121.145 Y132.128 E4.19531
G1 X121.145 Y134.764 E4.3276
G1 X120.456 Y134.764 E4.36218
G1 X120.456 Y132.128 E4.49447
G1 X119.766 Y132.128 E4.5291
G1 X119.766 Y134.764 E4.66139
G1 X119.076 Y134.764 E4.69602
G1 X119.076 Y132.128 E4.82831
G1 X118.386 Y132.128 E4.86294
G1 X118.386 Y134.764 E4.99523
G1 X117.696 Y134.764 E5.02986
G1 X117.696 Y132.128 E5.16215
G1 X117.007 Y132.128 E5.19673
