; generated by PrusaSlicer 2.5.1+win64 on 2023-03-21 at 22:43:04 UTC


;
;
; 

; external perimeters extrusion width = 0.45mm
; perimeters extrusion width = 0.45mm
; infill extrusion width = 0.45mm
; solid infill extrusion width = 0.45mm
; top infill extrusion width = 0.40mm
; support material extrusion width = 0.35mm
; first layer extrusion width = 0.42mm

M73 P0 R85
M73 Q0 S86
M201 X1000 Y1000 Z200 E5000 ; sets maximum accelerations, mm/sec^2
M203 X200 Y200 Z12 E120 ; sets maximum feedrates, mm / sec
M204 P1250 R1250 T1250 ; sets acceleration (P, T) and retract acceleration (R), mm/sec^2
M205 X8.00 Y8.00 Z0.40 E4.50 ; sets the jerk limits, mm/sec
M205 S0 T0 ; sets the minimum extruding and travel feed rate, mm/sec
M107
;TYPE:Custom
M862.3 P "MK3S" ; printer model check
M862.1 P0.4 ; nozzle diameter check
M115 U3.12.2 ; tell printer latest fw version
G90 ; use absolute coordinates
M83 ; extruder relative mode
M104 S200 ; set extruder temp
M140 S0 ; set bed temp
M190 S0 ; wait for bed temp
M109 S200 ; wait for extruder temp
G28 W ; home all without mesh bed level
G80 ; mesh bed leveling

G1 Z0.2 F720
G1 Y-3 F1000 ; go outside print area
G92 E0
G1 X60 E9 F1000 ; intro line
G1 X100 E12.5 F1000 ; intro line

G92 E0
M221 S95

; Don't change E values below. Excessive value can damage the printer.

G21 ; set units to millimeters
G90 ; use absolute coordinates
M83 ; use relative distances for extrusion
; Filament gcode
M107
;LAYER_CHANGE
;Z:0.35
;HEIGHT:0.35
;BEFORE_LAYER_CHANGE
G92 E0.0
;0.35


M73 Q0 S85
G1 E-.8 F2100
G1 Z.4 F7800
;AFTER_LAYER_CHANGE
;0.35
G1 X19.384 Y16.755
G1 Z.35
G1 E.8 F2100
;TYPE:Skirt/Brim
;WIDTH:0.42
G1 F1800
G1 X22.271 Y13.868 E.20488
G1 X24.114 Y12.587 E.11262
G1 X26.71 Y12.01 E.13347
G1 X37.71 Y11.927 E.55205
G1 X55.081 Y12.01 E.87181
G1 X57.288 Y12.417 E.11262
G1 X59.537 Y13.868 E.13434
G1 X60.613 Y15.225 E.0869
G1 X71.361 Y33.404 E1.05983
G1 X71.922 Y34.565 E.06475
G1 X73.286 Y38.058 E.18819
G1 X73.678 Y39.57 E.07839
G1 X73.849 Y40.892 E.06692
G1 X73.9 Y44.76 E.19413
G1 X73.85 Y45.714 E.04793
G1 X72.59 Y55.775 E.50888
G1 X71.323 Y58.851 E.16695
G1 X71.151 Y59.076 E.0142
G1 X69.489 Y60.584 E.11262
G1 X67.454 Y61.41 E.11026
G1 X28.526 Y69.767 E1.99811
G1 X27.195 Y69.909 E.06721
M73 P0 R84
G1 X12.829 Y69.909 E.72093
G1 X10.621 Y69.512 E.11262
G1 X8.343 Y68.05 E.13582
G1 X5.456 Y65.164 E.20488
G1 X4.175 Y63.321 E.11262
G1 X3.598 Y60.677 E.13582
G1 X3.598 Y51.883 E.44133
G1 X4.167 Y49.257 E.13482
G1 X18.095 Y18.616 E1.6892
G1 X19.35 Y16.804 E.11062
;WIPE_START
G1 F6240
G1 X21.027 Y15.119 E-.76
;WIPE_END
G1 E-.04 F2100
G1 Z.75 F7800
G1 X30.727 Y22.208
G1 Z.35
G1 E.8 F2100
G1 F1800
G1 X31.362 Y21.306 E.05537
G1 X32.167 Y20.555 E.05527
G1 X33.693 Y19.822 E.08494
G1 X34.769 Y19.673 E.05451
G1 X34.921 Y19.549 E.00985
G1 X36.083 Y18.924 E.06621
G1 X37.244 Y18.65 E.05985
G1 X38.404 Y18.655 E.05821
G1 X39.3 Y18.895 E.04656
G1 X39.734 Y18.764 E.02272
G1 X40.7 Y18.664 E.04878
G1 X42.455 Y18.986 E.08954
G1 X43.449 Y19.524 E.0567
G1 X44.188 Y20.112 E.04741
G1 X44.966 Y21.117 E.06377
G1 X45.382 Y21.958 E.04708
G1 X45.638 Y22.745 E.04156
G1 X45.802 Y23.537 E.04062
G1 X45.921 Y24.668 E.05706
G1 X46.142 Y25.242 E.03086
G1 X46.343 Y26.262 E.05218
G1 X46.392 Y27.792 E.07683
G1 X46.485 Y29.415 E.08159
G1 X46.48 Y31.9 E.12471
G1 X46.435 Y32.774 E.04392
G1 X46.265 Y34.247 E.07439
G1 X46.111 Y35.092 E.0431
G1 X46.453 Y35.184 E.01775
G1 X47.616 Y35.717 E.06424
G1 X48.363 Y36.238 E.04567
G1 X48.986 Y36.818 E.04273
G1 X49.437 Y37.366 E.03559
G1 X50.95 Y36.677 E.08346
G1 X53.167 Y35.819 E.11929
G1 X54.27 Y35.442 E.05851
G1 X55.177 Y35.189 E.04726
G1 X56.294 Y34.826 E.05894
G1 X56.961 Y34.653 E.0346
G1 X58.182 Y34.523 E.0616
G1 X58.338 Y34.527 E.00784
G1 X58.814 Y34.381 E.02499
G1 X59.772 Y34.173 E.04921
G1 X61.045 Y34.066 E.06411
G1 X62.369 Y34.242 E.06703
G1 X63.624 Y34.743 E.06782
G1 X65.033 Y35.956 E.09331
G1 X65.333 Y36.353 E.02496
G1 X65.923 Y37.642 E.07117
G1 X66.082 Y38.648 E.05112
G1 X66.519 Y39.242 E.03697
G1 X67.019 Y40.434 E.06487
G1 X67.182 Y41.478 E.05305
G1 X67.145 Y42.401 E.04635
G1 X66.948 Y43.095 E.03623
G1 X67.06 Y43.423 E.01736
G1 X67.213 Y44.638 E.06148
G1 X66.906 Y46.323 E.08596
G1 X66.055 Y47.784 E.08488
G1 X64.774 Y48.88 E.08457
G1 X63.3 Y49.532 E.08091
G1 X62.287 Y49.788 E.0524
G1 X61.699 Y49.886 E.02994
G1 X60.844 Y50.268 E.047
G1 X59.72 Y50.556 E.05822
G1 X58.837 Y50.709 E.04499
G1 X57.826 Y50.827 E.05108
G1 X55.451 Y51.012 E.11953
G1 X54.34 Y51.056 E.05578
G1 X53.157 Y51.039 E.05941
G1 X51.979 Y50.98 E.05918
G1 X50.896 Y50.845 E.05478
G1 X49.793 Y50.574 E.05701
G1 X48.457 Y50.012 E.07273
G1 X48.272 Y50.364 E.01995
G1 X47.496 Y51.599 E.07321
G1 X46.618 Y52.759 E.07301
G1 X45.673 Y53.838 E.07202
G1 X44.635 Y54.86 E.07305
G1 X43.515 Y55.837 E.0746
G1 X42.27 Y56.819 E.07957
G1 X41.208 Y57.569 E.06528
G1 X40.105 Y58.253 E.06512
G1 X39.029 Y58.818 E.06101
G1 X36.958 Y59.762 E.11423
G1 X35.63 Y60.302 E.07193
G1 X34.27 Y60.768 E.07214
G1 X32.95 Y61.133 E.06872
G1 X31.565 Y61.41 E.07089
G1 X30.172 Y61.559 E.07032
G1 X28.825 Y61.561 E.06757
G1 X28.056 Y61.481 E.0388
G1 X27.254 Y61.334 E.04096
G1 X25.953 Y60.937 E.06825
G1 X25.199 Y60.587 E.04171
G1 X24.491 Y60.153 E.04166
G1 X23.863 Y59.659 E.04012
G1 X23.309 Y59.106 E.03926
G1 X22.816 Y58.484 E.03984
G1 X22.408 Y57.82 E.0391
G1 X21.926 Y56.68 E.06211
G1 X21.729 Y55.878 E.04147
G1 X21.632 Y55.078 E.04041
G1 X21.691 Y53.734 E.06755
G1 X22.013 Y52.411 E.06833
G1 X22.693 Y50.997 E.07871
G1 X23.423 Y49.997 E.06217
G1 X24.292 Y49.098 E.06273
G1 X25.165 Y48.365 E.05722
G1 X26.048 Y47.722 E.05479
G1 X28.583 Y46.169 E.14921
G1 X29.824 Y45.378 E.07386
G1 X30.777 Y44.721 E.0581
G1 X31.612 Y44.087 E.0526
G1 X36.025 Y40.246 E.29362
G1 X34.897 Y39.432 E.06978
G1 X34.123 Y38.645 E.0554
G1 X33.521 Y37.845 E.05024
G1 X33.041 Y37.036 E.04722
G1 X32.67 Y36.261 E.04312
G1 X32.154 Y35.027 E.06714
G1 X31.627 Y33.585 E.07703
G1 X30.795 Y30.627 E.15421
G1 X30.589 Y29.665 E.0494
G1 X30.427 Y28.641 E.05201
G1 X30.371 Y27.804 E.04211
G1 X30.402 Y27.272 E.02676
G1 X30.17 Y25.952 E.06724
G1 X30.103 Y24.664 E.06473
G1 X30.272 Y23.399 E.06403
G1 X30.706 Y22.264 E.06098
G1 X31.027 Y22.389 F7800
G1 F1800
G1 X31.633 Y21.521 E.0531
G1 X32.382 Y20.826 E.05129
G1 X33.816 Y20.146 E.07962
G1 X34.917 Y20.002 E.05574
G1 X35.104 Y19.842 E.01234
G1 X36.187 Y19.254 E.06184
G1 X37.263 Y18.995 E.05558
G1 X38.379 Y19 E.05598
G1 X39.306 Y19.254 E.04825
G1 X39.789 Y19.105 E.02537
G1 X40.665 Y19.008 E.04425
G1 X42.316 Y19.302 E.08414
G1 X43.272 Y19.82 E.05455
G1 X43.928 Y20.34 E.04203
G1 X44.682 Y21.314 E.06181
G1 X45.066 Y22.098 E.04383
G1 X45.302 Y22.824 E.03833
G1 X45.46 Y23.582 E.03885
G1 X45.583 Y24.751 E.05896
G1 X45.806 Y25.325 E.03093
G1 X45.998 Y26.288 E.04927
G1 X46.047 Y27.808 E.07633
G1 X46.14 Y29.42 E.08103
G1 X46.135 Y31.895 E.12424
G1 X46.092 Y32.74 E.04246
G1 X45.923 Y34.202 E.07383
G1 X45.714 Y35.348 E.05849
G1 X46.325 Y35.505 E.03166
G1 X47.433 Y36.009 E.06109
G1 X48.137 Y36.499 E.04305
G1 X48.743 Y37.062 E.04151
G1 X49.337 Y37.79 E.04717
G1 X51.079 Y36.997 E.09606
G1 X53.282 Y36.144 E.11852
G1 X54.367 Y35.773 E.05759
G1 X55.277 Y35.519 E.04738
G1 X56.387 Y35.158 E.05857
G1 X57.011 Y34.995 E.03239
G1 X58.205 Y34.868 E.06026
G1 X58.383 Y34.874 E.00893
G1 X58.895 Y34.717 E.0269
G1 X59.813 Y34.516 E.04714
G1 X61.055 Y34.411 E.06257
G1 X62.301 Y34.58 E.06311
G1 X63.468 Y35.052 E.06315
G1 X64.792 Y36.203 E.08808
G1 X65.045 Y36.543 E.02126
G1 X65.599 Y37.763 E.06721
G1 X65.754 Y38.786 E.05195
G1 X66.21 Y39.395 E.03817
G1 X66.693 Y40.547 E.06271
G1 X66.837 Y41.481 E.04738
G1 X66.801 Y42.365 E.04443
G1 X66.585 Y43.107 E.03878
G1 X66.721 Y43.486 E.02018
G1 X66.868 Y44.654 E.05911
G1 X66.573 Y46.23 E.08046
G1 X65.808 Y47.542 E.07624
G1 X64.611 Y48.575 E.07934
G1 X63.201 Y49.201 E.07742
G1 X62.21 Y49.452 E.05129
G1 X61.598 Y49.553 E.03112
G1 X60.743 Y49.937 E.04704
G1 X59.654 Y50.217 E.05642
G1 X58.792 Y50.367 E.04392
G1 X57.789 Y50.484 E.05068
G1 X55.428 Y50.667 E.11887
G1 X54.341 Y50.711 E.05459
G1 X53.171 Y50.694 E.05872
G1 X52.002 Y50.636 E.05871
G1 X50.968 Y50.508 E.05233
G1 X49.911 Y50.25 E.0546
G1 X48.833 Y49.808 E.05844
G1 X48.336 Y49.498 E.02942
G1 X47.977 Y50.186 E.03897
G1 X47.208 Y51.409 E.07247
G1 X46.347 Y52.545 E.07157
G1 X45.417 Y53.606 E.07078
G1 X44.397 Y54.61 E.07183
G1 X43.298 Y55.569 E.07318
G1 X42.06 Y56.545 E.07912
G1 X41.013 Y57.285 E.06433
G1 X39.939 Y57.95 E.06343
G1 X38.881 Y58.507 E.05997
G1 X36.818 Y59.447 E.11381
G1 X35.505 Y59.981 E.07115
G1 X34.163 Y60.44 E.07114
G1 X32.864 Y60.799 E.06763
G1 X31.52 Y61.068 E.06879
G1 X30.162 Y61.215 E.06856
G1 X28.852 Y61.217 E.06577
G1 X28.111 Y61.141 E.03734
G1 X27.344 Y61.001 E.03915
G1 X26.086 Y60.619 E.06596
G1 X25.37 Y60.287 E.03961
G1 X24.696 Y59.875 E.03966
G1 X24.099 Y59.407 E.0381
G1 X23.573 Y58.884 E.03723
G1 X23.104 Y58.294 E.03778
G1 X22.708 Y57.651 E.03792
G1 X22.258 Y56.584 E.05811
G1 X22.07 Y55.826 E.0392
G1 X21.976 Y55.051 E.03915
G1 X22.035 Y53.767 E.06455
G1 X22.344 Y52.511 E.0649
G1 X22.981 Y51.188 E.07369
G1 X23.695 Y50.21 E.06079
G1 X24.52 Y49.356 E.05958
G1 X25.382 Y48.633 E.05648
G1 X26.245 Y48.005 E.05355
G1 X28.765 Y46.462 E.14833
G1 X30.015 Y45.666 E.07433
G1 X30.979 Y45 E.05881
G1 X31.829 Y44.354 E.05357
G1 X36.674 Y40.137 E.32236
G1 X35.995 Y39.803 E.03798
G1 X35.133 Y39.18 E.05341
G1 X34.377 Y38.412 E.0541
G1 X33.802 Y37.646 E.04803
G1 X33.348 Y36.88 E.04467
G1 X32.987 Y36.124 E.04209
G1 X32.476 Y34.905 E.06633
G1 X31.957 Y33.485 E.07584
G1 X31.129 Y30.539 E.1536
G1 X30.928 Y29.597 E.04834
G1 X30.771 Y28.61 E.05016
G1 X30.715 Y27.792 E.04115
G1 X30.748 Y27.252 E.02714
G1 X30.514 Y25.922 E.06775
G1 X30.447 Y24.693 E.06178
G1 X30.611 Y23.465 E.06217
G1 X31.006 Y22.444 E.05493
G1 X31.327 Y22.569 F7800
G1 F1800
G1 X31.355 Y22.499 E.00378
G1 X31.902 Y21.737 E.04708
G1 X32.596 Y21.098 E.04733
G1 X33.936 Y20.47 E.07427
G1 X35.067 Y20.332 E.05719
G1 X35.289 Y20.134 E.0149
G1 X36.291 Y19.583 E.0574
G1 X37.285 Y19.34 E.05135
G1 X38.31 Y19.339 E.05145
G1 X39.314 Y19.614 E.05222
G1 X39.844 Y19.446 E.02793
G1 X40.679 Y19.354 E.04213
G1 X42.176 Y19.619 E.07632
G1 X43.094 Y20.116 E.05238
G1 X43.696 Y20.596 E.03866
G1 X44.398 Y21.509 E.05778
G1 X44.751 Y22.237 E.04061
G1 X44.967 Y22.904 E.03517
G1 X45.118 Y23.627 E.03707
G1 X45.245 Y24.834 E.0609
G1 X45.472 Y25.409 E.03101
G1 X45.654 Y26.314 E.04633
G1 X45.703 Y27.823 E.07581
G1 X45.795 Y29.424 E.08048
G1 X45.79 Y31.882 E.12336
G1 X45.749 Y32.706 E.0414
G1 X45.581 Y34.157 E.07327
G1 X45.412 Y35.091 E.04764
G1 X45.276 Y35.595 E.02621
G1 X46.197 Y35.826 E.04766
G1 X47.249 Y36.302 E.05796
G1 X47.911 Y36.76 E.04039
G1 X48.499 Y37.307 E.04027
G1 X48.999 Y37.921 E.03978
G1 X49.202 Y38.259 E.01976
G1 X49.711 Y37.992 E.02885
G1 X51.208 Y37.317 E.08241
G1 X53.397 Y36.469 E.11779
G1 X54.465 Y36.104 E.05667
G1 X55.376 Y35.849 E.04749
G1 X56.488 Y35.488 E.05868
G1 X57.085 Y35.332 E.03097
G1 X58.226 Y35.212 E.05757
G1 X58.425 Y35.222 E.01
G1 X58.977 Y35.052 E.02895
G1 X59.853 Y34.859 E.04505
G1 X61.065 Y34.757 E.06101
G1 X62.232 Y34.919 E.05913
G1 X63.31 Y35.36 E.05847
G1 X64.55 Y36.449 E.08282
G1 X64.756 Y36.731 E.01754
G1 X65.274 Y37.881 E.06332
G1 X65.425 Y38.924 E.05285
G1 X65.901 Y39.55 E.03947
G1 X66.355 Y40.623 E.05846
G1 X66.492 Y41.484 E.04375
G1 X66.457 Y42.329 E.04245
G1 X66.221 Y43.12 E.04141
G1 X66.381 Y43.55 E.02303
G1 X66.522 Y44.67 E.05666
G1 X66.24 Y46.135 E.07487
G1 X65.526 Y47.342 E.07041
G1 X64.447 Y48.271 E.07141
G1 X63.102 Y48.87 E.07394
G1 X62.132 Y49.116 E.05017
G1 X61.497 Y49.22 E.03232
G1 X60.642 Y49.607 E.04709
G1 X59.588 Y49.879 E.05462
G1 X58.747 Y50.025 E.04285
G1 X57.752 Y50.141 E.05027
G1 X55.41 Y50.323 E.11788
G1 X54.341 Y50.366 E.05371
G1 X53.185 Y50.349 E.05803
G1 X52.026 Y50.292 E.05825
G1 X51.04 Y50.17 E.04986
G1 X50.005 Y49.918 E.05343
G1 X48.979 Y49.495 E.05571
G1 X48.203 Y49.005 E.04605
G1 X47.681 Y50.009 E.0568
G1 X46.929 Y51.207 E.07098
G1 X46.075 Y52.332 E.07088
G1 X45.171 Y53.365 E.0689
G1 X44.166 Y54.354 E.07074
G1 X43.081 Y55.301 E.07228
G1 X41.858 Y56.266 E.07822
G1 X40.819 Y57 E.06384
G1 X39.773 Y57.648 E.06174
G1 X38.734 Y58.195 E.05893
G1 X36.678 Y59.131 E.11338
G1 X35.379 Y59.659 E.07036
G1 X34.057 Y60.112 E.07015
G1 X32.779 Y60.465 E.06654
G1 X31.46 Y60.728 E.06746
G1 X30.152 Y60.87 E.06604
G1 X28.877 Y60.873 E.06397
G1 X28.166 Y60.8 E.03588
G1 X27.434 Y60.668 E.03733
G1 X26.22 Y60.301 E.06366
G1 X25.541 Y59.988 E.03752
G1 X24.9 Y59.597 E.03766
G1 X24.334 Y59.155 E.03604
G1 X23.823 Y58.646 E.03619
G1 X23.381 Y58.088 E.03572
G1 X23.009 Y57.481 E.03573
G1 X22.589 Y56.487 E.05416
G1 X22.411 Y55.774 E.03691
G1 X22.32 Y55.025 E.03787
G1 X22.378 Y53.8 E.06151
G1 X22.674 Y52.612 E.06147
G1 X23.269 Y51.378 E.06872
G1 X23.951 Y50.44 E.05822
G1 X24.749 Y49.615 E.05761
G1 X25.599 Y48.901 E.05572
G1 X26.442 Y48.288 E.05232
G1 X28.948 Y46.754 E.14745
G1 X30.205 Y45.953 E.07481
G1 X31.181 Y45.279 E.05952
G1 X32.047 Y44.622 E.05454
G1 X36.808 Y40.478 E.3168
G1 X37.255 Y40.034 E.03159
G1 X36.185 Y39.515 E.05969
G1 X35.347 Y38.909 E.0519
G1 X34.646 Y38.195 E.0502
G1 X34.084 Y37.447 E.04697
G1 X33.649 Y36.712 E.04286
G1 X33.303 Y35.987 E.04032
G1 X32.796 Y34.775 E.06593
G1 X32.287 Y33.386 E.07425
G1 X31.462 Y30.451 E.15299
G1 X31.266 Y29.53 E.04729
G1 X31.115 Y28.579 E.04832
G1 X31.06 Y27.78 E.04018
G1 X31.096 Y27.219 E.02822
G1 X31.034 Y26.951 E.01382
G1 X30.855 Y25.876 E.05467
G1 X30.791 Y24.721 E.05804
G1 X30.94 Y23.57 E.05826
G1 X31.306 Y22.625 E.05086
G1 X31.627 Y22.749 F7800
G1 F1800
G1 X31.668 Y22.644 E.00564
G1 X32.17 Y21.954 E.04283
G1 X32.808 Y21.371 E.0434
G1 X34.055 Y20.795 E.06889
G1 X35.22 Y20.662 E.05886
G1 X35.476 Y20.424 E.01754
G1 X36.396 Y19.913 E.05284
G1 X37.346 Y19.68 E.04909
G1 X38.285 Y19.683 E.04709
G1 X39.321 Y19.975 E.05403
G1 X39.9 Y19.786 E.03056
G1 X40.692 Y19.699 E.03999
G1 X42.036 Y19.936 E.0685
G1 X42.917 Y20.412 E.05024
G1 X43.436 Y20.823 E.03323
G1 X44.113 Y21.705 E.05578
G1 X44.434 Y22.375 E.03733
G1 X44.631 Y22.984 E.03207
G1 X44.778 Y23.689 E.03617
G1 X44.907 Y24.918 E.062
G1 X45.137 Y25.493 E.03107
G1 X45.313 Y26.367 E.04479
G1 X45.358 Y27.838 E.07386
G1 X45.45 Y29.439 E.08046
G1 X45.445 Y31.878 E.12238
G1 X45.405 Y32.683 E.0405
G1 X45.241 Y34.101 E.07159
G1 X45.074 Y35.022 E.04699
G1 X44.831 Y35.919 E.04664
G1 X45.341 Y35.967 E.02574
G1 X46.071 Y36.147 E.03769
G1 X47.067 Y36.595 E.05483
G1 X47.686 Y37.021 E.03771
G1 X48.255 Y37.551 E.03901
G1 X48.723 Y38.128 E.03729
G1 X49.071 Y38.717 E.03435
G1 X49.858 Y38.304 E.0446
G1 X51.345 Y37.633 E.08191
G1 X53.518 Y36.792 E.11691
G1 X54.562 Y36.435 E.0554
G1 X55.476 Y36.18 E.04761
G1 X56.59 Y35.817 E.0588
G1 X57.16 Y35.669 E.02953
G1 X58.246 Y35.557 E.05482
G1 X58.466 Y35.571 E.01106
G1 X59.058 Y35.387 E.0311
G1 X59.916 Y35.198 E.0441
G1 X61.073 Y35.102 E.05828
G1 X62.161 Y35.257 E.05513
G1 X63.151 Y35.667 E.05377
G1 X64.306 Y36.694 E.0776
G1 X64.449 Y36.889 E.01212
G1 X64.949 Y38 E.06115
G1 X65.096 Y39.062 E.05378
G1 X65.593 Y39.707 E.04087
G1 X66.019 Y40.7 E.0542
G1 X66.146 Y41.487 E.04006
G1 X66.113 Y42.292 E.04042
G1 X65.855 Y43.133 E.04415
G1 X66.042 Y43.615 E.02591
G1 X66.176 Y44.685 E.05414
G1 X65.908 Y46.037 E.06919
G1 X65.245 Y47.14 E.06459
G1 X64.284 Y47.966 E.0636
G1 X63.002 Y48.54 E.07045
G1 X62.055 Y48.779 E.04904
G1 X61.364 Y48.893 E.03516
G1 X61.24 Y48.969 E.0073
G1 X60.543 Y49.277 E.03821
G1 X59.509 Y49.543 E.05359
G1 X58.693 Y49.684 E.04156
G1 X57.722 Y49.797 E.04906
G1 X55.387 Y49.979 E.11756
G1 X54.332 Y50.021 E.05299
G1 X53.199 Y50.005 E.05687
G1 X52.061 Y49.949 E.05716
G1 X51.111 Y49.833 E.04802
G1 X50.1 Y49.586 E.05225
G1 X49.125 Y49.182 E.05296
G1 X48.071 Y48.511 E.06272
G1 X47.385 Y49.832 E.07467
G1 X46.649 Y51.004 E.06948
G1 X45.804 Y52.119 E.07019
G1 X44.924 Y53.124 E.06702
G1 X43.936 Y54.097 E.06964
G1 X42.864 Y55.033 E.07137
G1 X41.655 Y55.987 E.07731
G1 X40.624 Y56.715 E.06335
G1 X39.607 Y57.345 E.06005
G1 X38.586 Y57.883 E.05788
G1 X36.538 Y58.816 E.11295
G1 X35.254 Y59.338 E.06958
G1 X33.95 Y59.783 E.06915
G1 X32.693 Y60.131 E.06546
G1 X31.415 Y60.386 E.06538
G1 X30.142 Y60.525 E.06429
